!!!OTL: Der Bremberger. / b. Neuere Melodie, noch 1850 am Niederrhein gehoert.
!!!ARE: Europa, Mitteleuropa, Deutschland
!!!SCT: A0023B
!!!TXL: @@GMH
!!!YEM: Copyright 1995, estate of Helmut Schaffrath.
**kern	**text
*M6/8	*
*k[b-e-]	*
*g:	*
!LO:TX:a:t=moll	!
{8dd	Sie
=1	=1
4b-/	leg-
8a	-ten
4g	ihn
8f	auf
=2	=2
4g	ei-
8a	-nen
4b-}	Tiſch,}
{8dd	Ʒer-
=3	=3
4b-/	-ſchnitten
8a	.
4g	ihn
8f	wie
=4	=4
4g	ei-
8a	-nen
4b-}	Fiſch,}
=	=
{(16b-L	Sie
16ccJ)	.
=5	=5
4dd	nah-
8dd	-men
(8ddL	aus
8ee-J)	.
8dd	ſein
=6	=6
4.dd	Her-
4cc}	-ʒe,
{(16a/L	deß
16b-/J)	.
=7	=7
4cc	litt
8cc	er
(8ccL	gro-
8ddJ)	.
8cc	-ße
=8	=8
4.cc	Schmer-
4b-}	-ʒen,
{(16b-/L	ja
16a/J)	.
=9	=9
4g;	ja!
(16ddL	viel
16ccJ)	.
(8.b-L	Schmer-
16cc	.
16a	.
16b-J)	.
=10	=10
4.g	-ʒen.
4r}	.
==	==
!!!GTL: Balladen und Romanzen (erzählende Volkslieder)
!!!AGN: Romanze, Ballade, Lied
!! Neuere Melodie, noch 1850 am Niederrhein gehoert.
!!!ONB: ESAC (Essen Associative Code) Database: ALTDEU
!!!AMT: compound duple
!!!AIN: vox
!!!EED: Helmut Schaffrath
!!!EEV: 1.0
!!!URL-scan: https://rosdok.uni-rostock.de/mcrviewer/recordIdentifier/rosdok_ppn738218359/iview2/phys_0159.iview2?x=-955.4044398057085&y=2065.655685964739&scale=0.35505986316989735&rotation=0&layout=singlePageLayout&logicalDiv=log_0007
!!!ENC: Anna Maria Matuszewska
!!!EEV: 2024/16/02
*-	*-
